themes/vice/icons/floating-mode1.svg

<svg xmlns="http://www.w3.org/2000/svg" width="16" height="16">
    <path style="fill:#dfdfdf" d="M1 0v13h2V2h9V0z"/>
    <path style="fill:#dfdfdf" d="M4 3v13h11V3zm2 2h7v9H6z"/>
</svg>

<svg xmlns="http://www.w3.org/2000/svg" width="16" height="16" version="1.1">
 <path style="fill:#dfdfdf" d="M 1,0 V 13 H 3 V 2 H 12 V 0 Z"/>
 <path style="fill:#dfdfdf" d="M 4,3 V 16 H 15 V 3 Z M 6,5 H 13 V 14 H 6 Z"/>
</svg>
